X:1
T:Ave, Regina caelorum - Power
T:James Gibb editions
T:#
%%score [ 1 2 3 ]
L:1/8
Q:1/4=156
M:6/8
K:C
V:1 treble nm="Alto" snm="A"
V:2 treble-8 nm="Tenor" snm="T"
V:3 bass nm="Bass" snm="B"
V:1
"^Leonel Power\n(?-1445)""^Ave, Regina caelorum" (C6 | E3 F3 | G2 F E2 D | D3 C3) | (D3- D2 F) | %5
w: A\-||||ve * *|
 G6 | (A3 G2 F) | A6 | (D2 E F2 E) | G3 E3 | (A2 G F2 G | E3 F2 E) | F6 | G6 | (E2 F) G3 | %15
w: Re-|gi\- * *|na|cae\- * * *|lo- rum.|A\- * * *||ve|Do-|mi\- * na|
 (A2 c B2 A) | c6 | (G6 | A2 G F2 E) | G3 |: (G3 | A6 | c6) | (B3- B2 c) | (B2 A G2 F) | G6 | A6 | %27
w: an\- * * *|ge-|lo\-||rum:|Sal\-||ve|ra\- * *|dix * * *|san-|cta|
 (F3 E3) | (G3 D3) | E6 | F6 | E3 (G2 A) | (B3 G3 | A3 F2 E) | E6- | E3 :|[M:3/4] (E4 C2) | %37
w: Ex *|qua *|mun-|do|lux est *|or\- *||ta:||A\- *|
 (D4 G2) | A2 (AG) (FE) | E6 | F6 | D6 | E6 | (D2 E2 F2) | G6 | (A4 B2) |[M:3/4] (B2 A G2 F) | %47
w: ve *|glo- ri\- * o\- *|sa|Su-|per|om-|nes * *|spe-|ci\- *|o\- * * *|
 E6 |: (A4 B2) | c6 | (B2 A2) G2 | A2 F2 G2 | A2 B4 | (c4 G2 | A4) A2 | G6 | E6 | (F4 A2 | %58
w: sa:|Va\- *|le|val\- * de|de- co- ra|Et pro|no\- *|* bis|sem-|per|Chri\- *|
 G2 D2 F2 | E4 D2) | (E6 | F6) | (G6 | A6) | (G2 F2 E2) | !fermata!F6 :| %66
w: ||stum||ex\-||o\- * *|ra.|
V:2
 (c6- | c6 | B3- B2 B | A3 G3) | (A3- A2 c) | (c3- c2 d) | e6 | e6 | (d3 c2 !courtesy!=B) | d3 c3 | %10
w: A\-||||ve * *|Re\- * *|gi-|na|cae\- * *|lo- rum.|
 (c3 B3 | A2 G A3) | c6 | (c3- c2 d) | e3 e3 | (e3 d2 e) | f6 | (e3 d3 | e3 c3) | c3 |: (c3 | %21
w: A\- *||ve|Do\- * *|mi- na|an\- * *|ge-|lo\- *||rum:|Sal\-|
 d2 e f3 | e6) | g6 | (f2 e d2 c) | d6 | (d3 c3) | (c3 A3) | (B2 A G3) | (A3 c3) | c6 | (c2 d) e3 | %32
w: |ve|ra-|dix * * *|san-|cta *|Ex *|qua * *|mun\- *|do|lux * est|
 d6- | d6 | c6- | c3 :|[M:3/4][K:treble-8] (c2 e4) | g6 | (fe) (dc) d2 | c6 | (c4 A2) | %41
w: or\-||ta:||A\- *|ve|glo\- * ri\- * o-|sa|Su\- *|
 (B2 A2 G2) | G6 | (A2 c4) | c6 | (d4 e2) |[M:3/4][K:treble-8] (e4 d2) | c6 |: (c2 d2 e2) | %49
w: per * *|om-|nes *|spe-|ci\- *|o\- *|sa:|Va\- * *|
 (f4 e2) | (gf ef) d2 | c2 (de) e2 | e2 d4 | (e6 | fe d2) c2 | d6 | c6 | (A6 | B4 A2 | A4 G2) | %60
w: le *|val\- * * * de|de- co\- * ra,|Et pro|no\-|* * * bis|sem-|per|Chri\-|||
 A6- | A6 | c6- | c6 | d6 | !fermata!c6 :| %66
w: stum||ex\-||o-|ra.|
V:3
 (C6 | A,6 | G,6 | F,3 E,3) | D,6 | C,6 | (C3 B,3) | A,6 | (B,3 A,3) | G,3 A,3 | (C3 D3 | %11
w: A\-||||ve|Re-|gi\- *|na|cae\- *|lo- rum.|A\- *|
 C2 _B, A,2 G,) | F,6 | C,6 | C3 (C2 B,) | (A,3 G,3) | F,6 | (C3 B,3 | A,6) | E,3 |: (E,3 | D,6 | %22
w: |ve|Do-|mi- na *|an\- *|ge-|lo\- *||rum:|Sal\-||
 A,6) | G,6 | (D2 C B,2 A,) | G,6 | (D,3 F,3) | (A,3 C3) | (G,3 _B,3) | (A,3 G,3) | F,6 | C,3 C,3 | %32
w: ve|ra-|dix * * *|san-|cta *|Ex *|qua *|mun\- *|do|lux est|
 (G,6 | D,6) | A,6- | A,3 :|[M:3/4] A,6 | (G,4 E,2) | D,2 D,2 G,2 | (A,4 G,2) | F,6 | G,6 | %42
w: or\-||ta:||A-|ve *|glo- ri- o-|sa *|Su-|per|
 (C,4 G,2) | (F,2 E,2 D,2) | (C,4 E,2) | (D,2 F,2 E,2) |[M:3/4] G,6 | A,6 |: (C2 A,2 G,2) | %49
w: om\- *|nes * *|spe\- *|ci\- * *|o-|sa:|Va\- * *|
 (F,4 A,2) | (G,2 C2) B,2 | A,2 A,2 C2 | C2 (G,2 D2) | (C6 | F,4) F,2 | _B,6 | (C2 A,2 G,2) | %57
w: le *|val\- * de|de- co- ra|Et pro *|no\-|* bis|sem-|per * *|
 (F,6 | G,4 D,2 | A,2 C2 B,2) | (A,6 | D,6) | (C,6 | F,4 A,2) | (_B,2 A,2 G,2) | !fermata!F,6 :| %66
w: Chri\-|||stum||ex\-||o\- * *|ra.|

